X:16026
T:Peacock Followed the Hen, The
T:Yellow Stockings; Cuddle Me, Cuddy; Mad Moll
R:Slipjig
C:Trad. Playford 1698
O:England
Z:Paul Hardy's Session Tunebook 2022 (see www.paulhardy.net). Creative Commons cc by-nc-sa licenced.
M:9/8
L:1/8
Q:3/8=80
K:Edor
"Em"G>AB GEE GEE|G>AB GEE "D"F2 D|"Em"G>AB GEE GEE|"D"FGA A>dA F2 D:|
|:"G"G>AB dBB dBB|G>AB dBB "A"c2 A|"G"G>AB dBB dBB|"D"FGA AdA F2 D:|"Em""_Out"E6|]

